Suru++-Ubuntu/apps/symbolic/qrcode-symbolic.svg

<svg xmlns="http://www.w3.org/2000/svg" style="enable-background:new" width="16" height="16.003" version="1.1">
 <path style="fill:#808080" d="M 0 0.00390625 L 0 16.003906 L 16 16.003906 L 16 0.00390625 L 0 0.00390625 z M 1.5 1.5039062 L 14.5 1.5039062 L 14.5 14.503906 L 1.5 14.503906 L 1.5 1.5039062 z"/>
 <rect style="fill:#808080" width="10" height="10" x="3" y="3"/>
</svg>

<svg width="16" height="16.003" style="enable-background:new" version="1.1" xmlns="http://www.w3.org/2000/svg">
 <path d="m0 0.00390625v16h16v-16h-16zm1.5 1.5h13v13h-13v-13z" style="fill:#808080"/>
 <rect x="3" y="3" width="10" height="10" style="fill:#808080"/>
</svg>
